src/assets/Timezone.svg

<?xml version="1.0" encoding="UTF-8"?>
<svg width="16px" height="16px" viewBox="0 0 16 16" version="1.1" xmlns="http://www.w3.org/2000/svg" xmlns:xlink="http://www.w3.org/1999/xlink">
    <title>Timezone</title>
    <defs>
        <path d="M7.48606334,1.41374564 C6.89416258,1.63180684 6.3268256,2.23370509 5.85471704,3.16706912 C5.73267687,3.40855286 5.62155271,3.6634815 5.52136465,3.9318773 C6.1463802,4.17430799 6.8086382,4.32369986 7.48606334,4.37430688 L7.48606334,1.41374564 Z M3.64074996,2.82503473 C3.94434903,3.07686157 4.26723995,3.30088694 4.6090471,3.49741536 C4.71500522,3.22501878 4.82974541,2.96527666 4.95354504,2.71768347 C5.15052318,2.32994758 5.36483246,1.98562514 5.59476131,1.68807864 C4.88483709,1.95484107 4.22484467,2.33941117 3.64074996,2.82503473 Z M1.19220079,7.56360642 L3.83578864,7.56360642 C3.87039206,6.48170317 4.02451378,5.43179065 4.28736269,4.47441834 C3.79658696,4.20913294 3.3366061,3.89355872 2.91049688,3.52913751 C1.91330964,4.64403333 1.30454897,6.05352221 1.19220079,7.56360642 Z M2.92238211,12.6217083 C3.3428194,12.2606319 3.80140422,11.9470996 4.29332122,11.6825306 C4.02897005,10.7262928 3.87345063,9.67059634 3.83614264,8.57472211 L1.19216499,8.57472211 C1.30465951,10.091568 1.91697437,11.5043407 2.92238211,12.6217083 Z M8,0 C12.411198,0 16,3.58880198 16,8 C16,12.411198 12.411198,16 8,16 C3.58880198,16 0,12.411198 0,8 C0,3.58880198 3.58880198,0 8,0 Z M8.39195988,1.26584356 L8.39193053,5.64841499 C8.05290627,5.92173078 7.74833192,6.1728282 7.4782075,6.40170726 L7.47980562,5.38440112 C6.70059719,5.33571993 5.9369487,5.17117542 5.21287647,4.89682598 C5.00020012,5.72003812 4.8739314,6.62376338 4.84115646,7.56360642 L6.21905042,7.56395934 C5.99945543,7.80317453 5.88965793,7.97157617 5.88965793,8.06916427 C5.88965793,8.16026773 5.98534838,8.32851527 6.17672927,8.57390686 L4.84427615,8.57472211 C4.87720712,9.51847624 5.005708,10.4287574 5.22200219,11.2603584 C5.94645626,10.9857056 6.70779317,10.8213464 7.48606334,10.7727024 L7.48620974,10.0008224 C7.75434291,10.271111 8.05624984,10.5686275 8.39193053,10.8933718 L8.39195988,14.7341564 C11.9296733,14.5304929 14.745586,11.5880006 14.745586,8 C14.745586,4.41199944 11.9296733,1.46950712 8.39195988,1.26584356 Z M7.48606334,11.7853485 C6.81384657,11.8335242 6.15453215,11.9820097 5.52837842,12.224916 C5.62912761,12.4912224 5.73749394,12.7393615 5.85469166,12.9712092 C6.32682309,13.9046185 6.89416235,14.5065212 7.48606334,14.7245828 L7.48606334,11.7853485 Z M4.61523704,12.6592979 C4.31613931,12.8306334 4.02987306,13.0247718 3.75885514,13.2402913 C4.26423501,13.6514407 4.82979013,13.9896462 5.43998525,14.2408569 L5.595451,14.4527547 C5.36387831,14.153054 5.14952766,13.8084839 4.9537107,13.4209702 C4.83431845,13.1872662 4.72197905,12.9336586 4.61523704,12.6592979 Z M9.85009812,5.16727261 C10.0430266,4.98736389 10.3454025,4.99801562 10.5254213,5.19106206 C10.70544,5.38410851 10.6949731,5.6864909 10.5020446,5.86639962 L10.5020446,5.86639962 L8.2094359,8.00429182 L9.98859786,9.91220943 C10.1686166,10.1052559 10.1581497,10.4076383 9.9652212,10.587547 C9.77229272,10.7674557 9.46991679,10.756804 9.28989806,10.5637575 L9.28989806,10.5637575 L7.18476287,8.30627642 C7.00474414,8.11322997 7.01521104,7.81084758 7.20813952,7.63093886 L7.20813952,7.63093886 Z" id="path-8"></path>
    </defs>
    <g id="Locations-timezone" stroke="none" stroke-width="1" fill="none" fill-rule="evenodd">
        <g id="Assets-timezone" transform="translate(-28.000000, -95.000000)">
            <g id="Group-timezone" transform="translate(28.000000, 27.000000)">
                <g transform="translate(0.000000, 68.000000)" id="Timezone">
                    <mask id="mask-8" fill="white">
                        <use xlink:href="#path-8"></use>
                    </mask>
                    <use id="Mask-timezone" fill="#FFFFFF" xlink:href="#path-8"></use>
                    <g id="Group" mask="url(#mask-8)" fill="gray">
                        <g id="🎨-Color">
                            <rect id="Rectangle-2" x="0" y="0" width="16.0266667" height="16.0266667"></rect>
                        </g>
                    </g>
                </g>
            </g>
        </g>
    </g>
</svg>

<svg xmlns="http://www.w3.org/2000/svg" xmlns:xlink="http://www.w3.org/1999/xlink" viewBox="0 0 16 16">
  <defs/>
  <defs>
    <path id="at" d="M7.486 1.414c-.592.218-1.16.82-1.631 1.753a7.541 7.541 0 00-.334.765 6.843 6.843 0 001.965.442v-2.96zM3.641 2.825c.303.252.626.476.968.672.106-.272.22-.532.345-.78.197-.387.41-.731.64-1.029-.71.267-1.37.651-1.953 1.137zM1.192 7.564h2.644c.034-1.082.189-2.132.451-3.09A7.88 7.88 0 012.91 3.53a6.797 6.797 0 00-1.718 4.035zm1.73 5.058c.42-.361.88-.675 1.371-.94a13.466 13.466 0 01-.457-3.107H1.192a6.785 6.785 0 001.73 4.047zM8 0c4.411 0 8 3.589 8 8s-3.589 8-8 8-8-3.589-8-8 3.589-8 8-8zm.392 1.266v4.382c-.34.274-.644.525-.914.754l.002-1.018a7.761 7.761 0 01-2.267-.487 12.467 12.467 0 00-.372 2.667H6.22c-.22.24-.33.408-.33.505 0 .091.096.26.288.505H4.844c.033.944.162 1.855.378 2.686a7.741 7.741 0 012.264-.487V10c.268.27.57.568.906.892v3.841c3.538-.204 6.354-3.146 6.354-6.734S11.93 1.47 8.392 1.266zm-.906 10.52a6.744 6.744 0 00-1.958.439c.101.266.21.514.327.746.472.934 1.04 1.536 1.631 1.754v-2.94zm-2.87.873c-.3.172-.586.366-.857.581.505.411 1.07.75 1.681 1l.155.213a6.42 6.42 0 01-.641-1.032 8.248 8.248 0 01-.339-.762zM9.85 5.167a.478.478 0 01.652.7L8.209 8.003l1.78 1.908a.478.478 0 11-.7.652L7.186 8.306a.478.478 0 01.023-.675z"/>
  </defs>
  <g fill="none" fill-rule="evenodd">
    <mask id="bt" fill="#fff">
      <use xlink:href="#at"/>
    </mask>
    <use fill="#FFF" xlink:href="#at"/>
    <g fill="gray" mask="url(#bt)">
      <path d="M0 0h16.027v16.027H0z"/>
    </g>
  </g>
</svg>
